X:1
T:Blaze Foley
M:4/4
L:1/8
Q:1/4=74
K:G
z4 D2 E2 | G4 A2 B2 | A4 G2 E2 | D4 z4 |
z4 D2 G2 | B4 A2 G2 | E2 G2 A2 G2 | E4 z4 |
z4 B,2 D2 | E2 G2 A2 B2 | d4 B2 A2 | G4 z4 |
z4 G2 A2 | B2 A2 G2 E2 | D2 E2 G2 A2 | G6 z2 |
